X:1
T: Clear the Track
C:
R:Reel
Q: 232
K:Bb
M:4/4
L:1/8
|:B,A,|B,D FB df bf|df Bd FB DB,|CF Ac ec Ac|Bd cB AF EC|
B,D FB df bf|df Bd FB DB,|CF Ac ec Ac|B2 d2 B2:|
|:f2|ag ec Af ga|bf dB FB df|ge cg fd Bd|ec dB AF Ac|
ag ec Af ga|bf dB FB df|ga ((3bag) fb Ac|B2 d2 B2:|
